package/converter/svg/regular/line-columns.svg

<svg xmlns="http://www.w3.org/2000/svg" viewBox="0 0 512 512"><!-- Font Awesome Pro 6.0.0-alpha2 by @fontawesome - https://fontawesome.com License - https://fontawesome.com/license (Commercial License) --><path d="M200 168H24C10.745 168 0 178.745 0 192V192C0 205.255 10.745 216 24 216H200C213.255 216 224 205.255 224 192V192C224 178.745 213.255 168 200 168ZM200 296H24C10.745 296 0 306.745 0 320V320C0 333.255 10.745 344 24 344H200C213.255 344 224 333.255 224 320V320C224 306.745 213.255 296 200 296ZM200 40H24C10.745 40 0 50.745 0 64V64C0 77.255 10.745 88 24 88H200C213.255 88 224 77.255 224 64V64C224 50.745 213.255 40 200 40ZM200 424H24C10.745 424 0 434.745 0 448V448C0 461.255 10.745 472 24 472H200C213.255 472 224 461.255 224 448V448C224 434.745 213.255 424 200 424ZM488 40H312C298.745 40 288 50.745 288 64V64C288 77.255 298.745 88 312 88H488C501.255 88 512 77.255 512 64V64C512 50.745 501.255 40 488 40ZM488 168H312C298.745 168 288 178.745 288 192V192C288 205.255 298.745 216 312 216H488C501.255 216 512 205.255 512 192V192C512 178.745 501.255 168 488 168ZM488 424H312C298.745 424 288 434.745 288 448V448C288 461.255 298.745 472 312 472H488C501.255 472 512 461.255 512 448V448C512 434.745 501.255 424 488 424ZM488 296H312C298.745 296 288 306.745 288 320V320C288 333.255 298.745 344 312 344H488C501.255 344 512 333.255 512 320V320C512 306.745 501.255 296 488 296Z"/></svg>

<svg xmlns="http://www.w3.org/2000/svg" viewBox="0 0 512 512"><!--! Font Awesome Pro 6.6.0 by @fontawesome - https://fontawesome.com License - https://fontawesome.com/license (Commercial License) Copyright 2024 Fonticons, Inc. --><path d="M24 40C10.7 40 0 50.7 0 64S10.7 88 24 88l176 0c13.3 0 24-10.7 24-24s-10.7-24-24-24L24 40zm0 128c-13.3 0-24 10.7-24 24s10.7 24 24 24l176 0c13.3 0 24-10.7 24-24s-10.7-24-24-24L24 168zM0 320c0 13.3 10.7 24 24 24l176 0c13.3 0 24-10.7 24-24s-10.7-24-24-24L24 296c-13.3 0-24 10.7-24 24zM24 424c-13.3 0-24 10.7-24 24s10.7 24 24 24l176 0c13.3 0 24-10.7 24-24s-10.7-24-24-24L24 424zM288 192c0 13.3 10.7 24 24 24l176 0c13.3 0 24-10.7 24-24s-10.7-24-24-24l-176 0c-13.3 0-24 10.7-24 24zM312 40c-13.3 0-24 10.7-24 24s10.7 24 24 24l176 0c13.3 0 24-10.7 24-24s-10.7-24-24-24L312 40zM288 320c0 13.3 10.7 24 24 24l176 0c13.3 0 24-10.7 24-24s-10.7-24-24-24l-176 0c-13.3 0-24 10.7-24 24zm24 104c-13.3 0-24 10.7-24 24s10.7 24 24 24l176 0c13.3 0 24-10.7 24-24s-10.7-24-24-24l-176 0z"/></svg>
